svg/fluentui-system-icons/ic_fluent_cloud_words_28_regular.svg

<svg width="28" height="28" viewBox="0 0 28 28" fill="none" xmlns="http://www.w3.org/2000/svg">
<path d="M11.75 11C11.3358 11 11 11.3358 11 11.75C11 12.1642 11.3358 12.5 11.75 12.5H16.25C16.6642 12.5 17 12.1642 17 11.75C17 11.3358 16.6642 11 16.25 11H11.75ZM6 16.75C6 16.3358 6.33579 16 6.75 16H12.25C12.6642 16 13 16.3358 13 16.75C13 17.1642 12.6642 17.5 12.25 17.5H6.75C6.33579 17.5 6 17.1642 6 16.75ZM15.75 16C15.3358 16 15 16.3358 15 16.75C15 17.1642 15.3358 17.5 15.75 17.5H21.25C21.6642 17.5 22 17.1642 22 16.75C22 16.3358 21.6642 16 21.25 16H15.75ZM14 6C10.5784 6 7.77426 8.64378 7.51894 12H7.25C4.62665 12 2.5 14.1266 2.5 16.75C2.5 19.3734 4.62665 21.5 7.25 21.5H20.75C23.3734 21.5 25.5 19.3734 25.5 16.75C25.5 14.1266 23.3734 12 20.75 12H20.4811C20.2257 8.64378 17.4216 6 14 6ZM9 12.5C9 9.73858 11.2386 7.5 14 7.5C16.7614 7.5 19 9.73858 19 12.5V12.75C19 13.1642 19.3358 13.5 19.75 13.5H20.75C22.5449 13.5 24 14.9551 24 16.75C24 18.5449 22.5449 20 20.75 20H7.25C5.45507 20 4 18.5449 4 16.75C4 14.9551 5.45507 13.5 7.25 13.5H8.25C8.66421 13.5 9 13.1642 9 12.75V12.5Z" fill="#212121"/>
</svg>

<svg xmlns="http://www.w3.org/2000/svg" width="28" height="28"><path d="M11.75 11a.75.75 0 0 0 0 1.5h4.5a.75.75 0 0 0 0-1.5h-4.5ZM6 16.75a.75.75 0 0 1 .75-.75h5.5a.75.75 0 0 1 0 1.5h-5.5a.75.75 0 0 1-.75-.75Zm9.75-.75a.75.75 0 0 0 0 1.5h5.5a.75.75 0 0 0 0-1.5h-5.5ZM14 6a6.5 6.5 0 0 0-6.481 6H7.25a4.75 4.75 0 1 0 0 9.5h13.5a4.75 4.75 0 1 0 0-9.5h-.269A6.5 6.5 0 0 0 14 6Zm-5 6.5a5 5 0 0 1 10 0v.25c0 .414.336.75.75.75h1a3.25 3.25 0 0 1 0 6.5H7.25a3.25 3.25 0 0 1 0-6.5h1a.75.75 0 0 0 .75-.75v-.25Z"/></svg>
